packages/katcn/src/icons/svg/headphones-solid.svg

<svg width="24" height="25" viewBox="0 0 24 25" fill="none" xmlns="http://www.w3.org/2000/svg">
<path d="M12 2.20801C6.5 2.20801 2 6.68562 2 12.1583V15.8398V17.0339V18.2279C2 20.417 3.7 22.1085 5.9 22.1085C8.1 22.1085 9.8 20.417 9.8 18.2279V15.7403C9.8 13.6508 8.1 11.8597 5.9 11.8597C5.2 11.9593 4.6 12.1583 4 12.4568V12.1583C4 7.78015 7.6 4.19806 12 4.19806C16.4 4.19806 20 7.78015 20 12.1583V12.4568C19.4 12.1583 18.8 11.9593 18.1 11.9593C16 11.9593 14.2 13.6508 14.2 15.8398V18.3274C14.2 20.417 15.9 22.208 18.1 22.208C20.2 22.208 22 20.5165 22 18.3274V17.1334V15.9394V12.1583C22 6.68562 17.5 2.20801 12 2.20801Z" fill="black"/>
</svg>

<svg xmlns="http://www.w3.org/2000/svg" fill="none" viewBox="0 0 24 25"><path fill="#000" d="M12 2.208c-5.5 0-10 4.478-10 9.95v6.07c0 2.189 1.7 3.88 3.9 3.88s3.9-1.691 3.9-3.88V15.74c0-2.09-1.7-3.88-3.9-3.88-.7.1-1.3.298-1.9.597v-.299c0-4.378 3.6-7.96 8-7.96s8 3.582 8 7.96v.299c-.6-.299-1.2-.498-1.9-.498-2.1 0-3.9 1.692-3.9 3.88v2.488c0 2.09 1.7 3.881 3.9 3.881 2.1 0 3.9-1.691 3.9-3.88v-6.169c0-5.473-4.5-9.951-10-9.951"/></svg>
